X:5124
T:Father O'Flynn
Z: id:dc-jig-33
M:6/8
L:1/8
K:D Major
A|dAF DFA|ded cBA|dcd efg|fdf ecA|!
dAF DFA|ded cBA|dcd eag|fdc d2:|!
e|fdf fga|ecA ABc|dcd Bed|cAA A2=c|!
BGB Bcd|AFD DFA|dcd eag|fdc d2:|!
